X:13045
T:Mrs Jamieson's Favorite
R:Jig, Air
C:Charles Grant 1810-1892
O:Scotland, Aberlour
Z:Paul Hardy's Session Tunebook 2015 (see www.paulhardy.net). Creative Commons cc by-nc-sa licenced.
M:6/8
L:1/8
Q:3/8=50
K:G
"G"D3/2G/2A B2D|"C"E2D EG2|"G"D3/2G/2B d2e|"D"d2B A2B |
"G"D3/2G/2A B2D|"C"E2D EG2|"G"DGA "Bm"B/2d3/2e|"D7"B2A "G"G3||
"G"d2 G "Em"e2 G|"G"d2D "C"E G2|"G"d2G "Em"e2G |"G"g2B "D"A2B|
"G"d3/2G/2G GAB|"C"E2D EG2|"G"D3/2G/2B d2e|"D7"B2A "G"G3|]

